icon-svg/spotpear-round-N16R8.svg

<svg xmlns="http://www.w3.org/2000/svg" fill="#44739e" viewBox="0 0 24 24"><path d="M12 15.152c3.98 0 7.219-2.319 7.219-5.169S15.98 4.814 12 4.814 4.781 7.133 4.781 9.983 8.02 15.152 12 15.152m5.653-3.652-.711 1.027-.115-.035.743-1.034zm-.161-.373-.892 1.316-.116-.034.927-1.325zm-1.241 1.235-.115-.035.788-1.1.083.042zm-6.8-2.525.082.042-.533.748-.113-.035Zm-.8.708-.115-.034.743-1.034.083.042ZM10.19 9.3l.084.042-.926 1.366-.116-.034Zm.628-.366.085.043-1.21 1.814-.117-.034zm.209.3.085.042-1.074 1.6-.116-.035zm.082-2.105a.271.271 0 0 1 .237-.091c.075.017.078.077.016.148a.265.265 0 0 1-.236.088c-.074-.016-.078-.074-.017-.145m.117 2.419.084.043-.927 1.366-.116-.034zm.811-.655.085.042-1.394 2.1-.117-.035Zm.4 0 .085.042-1.446 2.187-.118-.034zm.109.455.085.043-1.21 1.814-.121-.035Zm.23.265.085.043-1.1 1.631-.117-.034zm.283.182.084.043-1.034 1.532-.116-.035zm.07.518.083.042-.756 1.1-.115-.034zm.159.378.083.041-.569.8-.114-.035zm.345.082.083.042-.569.8-.114-.035zm.067-3.045a.273.273 0 0 1 .24-.091c.073.017.073.079.008.151a.268.268 0 0 1-.238.089c-.069-.017-.069-.077-.01-.149m.555 2.68.084.042-.849 1.25-.116-.034zm.477-.125.084.042-.985 1.458-.116-.035zm.57-.274.085.042-1.207 1.814-.116-.034zm.209.3.084.042-1.073 1.6-.117-.035zm.052.547.083.042-.779 1.134-.111-.032Zm.2.307.082.042-.637.91-.114-.035zm.13.423.081.041-.421.57-.111-.034zm.471-.117.082.042-.548.769-.113-.035zm-.139-4.435a1.02 1.02 0 0 1 .51-.039c.292.07.232.288.054.471a2.92 2.92 0 0 1-1.122.571l-.2.067.6.149-.138.144-.849-.213.1-.105.267-.1a3.07 3.07 0 0 0 1.141-.544c.126-.129.175-.265-.027-.313a.82.82 0 0 0-.392.039zm-1.078-.25a1.01 1.01 0 0 1 .511-.039c.295.068.239.284.065.465a2.89 2.89 0 0 1-1.115.568l-.2.067.6.147-.135.142-.857-.21.1-.1.266-.095a3.025 3.025 0 0 0 1.134-.541c.123-.128.17-.263-.034-.31a.82.82 0 0 0-.392.04zm-.565.172c.074.017.075.079.009.151a.273.273 0 0 1-.24.091c-.073-.017-.075-.081-.01-.149a.276.276 0 0 1 .249-.095Zm-.963-.516a1.02 1.02 0 0 1 .512-.04c.3.066.248.28.079.459a2.825 2.825 0 0 1-1.105.563l-.2.067.611.144-.132.14-.868-.2.1-.1.265-.095a2.97 2.97 0 0 0 1.124-.536c.121-.127.164-.26-.043-.306a.84.84 0 0 0-.394.04zm-.551-.273c.295.064.243.334-.128.731-.395.422-.785.615-1.088.546-.268-.062-.242-.329.132-.738a1.313 1.313 0 0 1 1.092-.541zm-1.112.2c.076.016.079.076.016.147a.271.271 0 0 1-.237.09c-.075-.017-.08-.079-.018-.146a.274.274 0 0 1 .247-.089Zm-.771-.577.677.141-.129.14-.533-.111-.343.3a.9.9 0 0 1 .122.017.39.39 0 0 1 .242.13c.059.079.052.2-.09.359a1.012 1.012 0 0 1-.9.305.454.454 0 0 1-.279-.151l.162-.116a.4.4 0 0 0 .236.133.645.645 0 0 0 .574-.194c.143-.159.126-.3-.154-.358a1.6 1.6 0 0 0-.207-.028Zm-1.018-.026-.351.064L9.9 5.7l.441-.079.165.033L9.4 6.869l-.183-.04.962-1.062Zm-.96 3.381-.9 1.317-.107-.035.923-1.327Zm-.235-.257-1 1.491-.116-.034 1.037-1.5zM8.758 8.6l-1.136 1.7-.117-.035 1.169-1.709Zm-.558.247-.927 1.367-.113-.034.959-1.375Zm-.666.424-.606.86-.111-.031.637-.868ZM7.06 9.4l-.474.653-.112-.035.5-.66Zm-.473.116-.346.454-.11-.035.376-.46Zm-.218-.286-.469.654-.113-.035.5-.66Zm-.191-.5.084.042L5.55 9.8l-.114-.034Zm-.2 1.883c-.054-.034-.051-.092-.049-.144a.45.45 0 0 0-.007-.128c-.021-.1-.089-.223-.156-.238s-.145.067-.206.126-.127.123-.193.085-.066-.137.012-.374l.12.039a1.5 1.5 0 0 0-.05.181l.024-.022c.081-.079.192-.186.32-.158.151.033.231.233.253.335a.58.58 0 0 1 .009.16v.025a.66.66 0 0 0 .15-.1.93.93 0 0 0 .125-.119.317.317 0 0 1 .156-.111.28.28 0 0 1 .287.065c.052.072.022.151-.024.269-.025.067-.057.15-.09.263-.043.152-.055.244-.035.274a.189.189 0 0 0 .2.058c.043-.015.06-.044.1-.126a1.55 1.55 0 0 1 .14-.234.62.62 0 0 1 .4-.311.353.353 0 0 1 .3.106c.062.083.051.175-.085.708a1.04 1.04 0 0 0-.039.3c0 .1.006.179.046.213s.186.019.339-.062c.1-.053.146-.107.316-.307l.079-.086c.282-.33.37-.419.518-.469a.725.725 0 0 1 .315-.03.692.692 0 0 1 .483.276c.078.136.047.245-.082.7-.019.065-.039.138-.062.219a1.79 1.79 0 0 0-.121.58c0 .005.031.5.27.57a.45.45 0 0 0 .343-.1.8.8 0 0 0 .287-.325 2.5 2.5 0 0 1 .885-.915 1.48 1.48 0 0 1 .526-.227.677.677 0 0 1 .509.035.616.616 0 0 1 .262.442.53.53 0 0 1-.043.267.97.97 0 0 0-.066.291c-.012.151-.021.25.04.322a.345.345 0 0 0 .343.076c.081-.024.117-.068.26-.25l.076-.1c.343-.432.446-.51.537-.561a.64.64 0 0 1 .5-.1.56.56 0 0 1 .371.385.543.543 0 0 1-.065.383 3.05 3.05 0 0 0-.14.387c-.08.278-.113.406-.069.535a.545.545 0 0 0 .508.366c.148-.012.244-.123.447-.372a3.16 3.16 0 0 0 .315-.471 1.175 1.175 0 0 1 .38-.455.9.9 0 0 1 .469-.174.83.83 0 0 1 .383.073l-.051.115a.71.71 0 0 0-.326-.062.806.806 0 0 0-.4.152 1.07 1.07 0 0 0-.342.414 3.3 3.3 0 0 1-.326.488c-.2.25-.327.4-.535.418h-.038a.678.678 0 0 1-.6-.453 1 1 0 0 1 .067-.611 3.25 3.25 0 0 1 .144-.4c.059-.14.086-.2.06-.3a.437.437 0 0 0-.284-.3.516.516 0 0 0-.4.09c-.074.041-.172.116-.5.529l-.076.1c-.146.187-.2.257-.324.293a.464.464 0 0 1-.475-.116.537.537 0 0 1-.069-.413 1.13 1.13 0 0 1 .074-.325.4.4 0 0 0 .035-.209.492.492 0 0 0-.2-.348.568.568 0 0 0-.419-.02 1.36 1.36 0 0 0-.483.21 2.41 2.41 0 0 0-.612.532 2.5 2.5 0 0 0-.233.341.92.92 0 0 1-.328.368.557.557 0 0 1-.448.116c-.316-.1-.354-.625-.357-.684a1.87 1.87 0 0 1 .124-.62c.023-.082.044-.155.062-.22.123-.434.144-.518.094-.605a.577.577 0 0 0-.389-.214.6.6 0 0 0-.258.024c-.113.038-.182.1-.463.432l-.075.087a1.16 1.16 0 0 1-.353.336c-.122.065-.347.158-.479.048a.39.39 0 0 1-.091-.306 1.12 1.12 0 0 1 .043-.329c.122-.479.131-.57.106-.6-.052-.07-.187-.057-.188-.057-.128.013-.217.134-.31.261a1.3 1.3 0 0 0-.13.216c-.044.087-.079.156-.174.188a.315.315 0 0 1-.345-.106c-.039-.058-.049-.142.019-.38.034-.118.068-.208.093-.273s.051-.133.039-.15a.168.168 0 0 0-.15-.017.2.2 0 0 0-.1.073 1.1 1.1 0 0 1-.141.134c-.093.069-.217.167-.307.111Zm6.013-3.298c.19.043.467-.137.763-.454s.385-.526.19-.568c-.166-.036-.453.117-.766.454s-.357.529-.187.568M12 17.3c5.514 0 10-3.253 10-7.251s-4.486-7.25-10-7.25S2 6.046 2 10.044 6.486 17.3 12 17.3M6.405 5.755a9.522 9.522 0 0 1 5.6-1.7 9.522 9.522 0 0 1 5.595 1.7 5.265 5.265 0 0 1 2.381 4.228 5.265 5.265 0 0 1-2.381 4.228 9.522 9.522 0 0 1-5.6 1.698 9.522 9.522 0 0 1-5.595-1.7 5.265 5.265 0 0 1-2.381-4.226 5.265 5.265 0 0 1 2.381-4.228m13.007 9.703a12.836 12.836 0 0 1-7.445 2.215 12.835 12.835 0 0 1-7.444-2.215A7.776 7.776 0 0 1 2 12.577l.116 1.63v.023c0 3.814 4.433 6.976 9.819 6.976s9.993-3.148 9.993-6.962L22 12.44a7.71 7.71 0 0 1-2.588 3.018"/></svg>

<?xml version="1.0" encoding="UTF-8"?>
<svg width="24px" fill="#44739e" height="24px" viewBox="0 0 24 24" version="1.1" xmlns="http://www.w3.org/2000/svg" xmlns:xlink="http://www.w3.org/1999/xlink">
            <path d="m 12,15.152 c 3.98,0 7.219,-2.319 7.219,-5.169 0,-2.85 -3.239,-5.169 -7.219,-5.169 -3.98,0 -7.219,2.319 -7.219,5.169 0,2.85 3.239,5.169 7.219,5.169 z m 5.653,-3.652 -0.711,1.027 -0.115,-0.035 0.743,-1.034 z m -0.161,-0.373 -0.892,1.316 -0.116,-0.034 0.927,-1.325 z m -1.241,1.235 -0.115,-0.035 0.788,-1.1 0.083,0.042 z M 9.451,9.837 9.533,9.879 9,10.627 8.887,10.592 Z M 8.651,10.545 8.536,10.511 9.279,9.477 9.362,9.519 Z M 10.19,9.3 10.274,9.342 9.348,10.708 9.232,10.674 Z m 0.628,-0.366 0.085,0.043 -1.21,1.814 -0.117,-0.034 z m 0.209,0.3 0.085,0.042 -1.074,1.6 -0.116,-0.035 z m 0.082,-2.105 a 0.271,0.271 0 0 1 0.237,-0.091 c 0.075,0.017 0.078,0.077 0.016,0.148 A 0.265,0.265 0 0 1 11.126,7.274 C 11.052,7.258 11.048,7.2 11.109,7.129 Z m 0.117,2.419 0.084,0.043 -0.927,1.366 -0.116,-0.034 z m 0.811,-0.655 0.085,0.042 -1.394,2.1 L 10.611,11 Z m 0.4,0 0.085,0.042 -1.446,2.187 -0.118,-0.034 z m 0.109,0.455 0.085,0.043 -1.21,1.814 L 11.3,11.17 Z m 0.23,0.265 0.085,0.043 -1.1,1.631 -0.117,-0.034 z m 0.283,0.182 0.084,0.043 -1.034,1.532 -0.116,-0.035 z m 0.07,0.518 0.083,0.042 -0.756,1.1 -0.115,-0.034 z m 0.159,0.378 0.083,0.041 -0.569,0.8 -0.114,-0.035 z m 0.345,0.082 0.083,0.042 -0.569,0.8 -0.114,-0.035 z M 13.7,7.728 a 0.273,0.273 0 0 1 0.24,-0.091 c 0.073,0.017 0.073,0.079 0.008,0.151 A 0.268,0.268 0 0 1 13.71,7.877 C 13.641,7.86 13.641,7.8 13.7,7.728 Z m 0.555,2.68 0.084,0.042 -0.849,1.25 -0.116,-0.034 z m 0.477,-0.125 0.084,0.042 -0.985,1.458 -0.116,-0.035 z m 0.57,-0.274 0.085,0.042 -1.207,1.814 -0.116,-0.034 z m 0.209,0.3 0.084,0.042 -1.073,1.6 -0.117,-0.035 z m 0.052,0.547 0.083,0.042 -0.779,1.134 L 14.756,12 Z m 0.2,0.307 0.082,0.042 -0.637,0.91 -0.114,-0.035 z m 0.13,0.423 0.081,0.041 -0.421,0.57 -0.111,-0.034 z m 0.471,-0.117 0.082,0.042 -0.548,0.769 -0.113,-0.035 z M 16.225,7.034 a 1.018,1.018 0 0 1 0.51,-0.039 c 0.292,0.07 0.232,0.288 0.054,0.471 a 2.917,2.917 0 0 1 -1.122,0.571 l -0.2,0.067 v 0 l 0.6,0.149 -0.138,0.144 -0.849,-0.213 0.1,-0.105 0.267,-0.1 A 3.074,3.074 0 0 0 16.588,7.435 C 16.714,7.306 16.763,7.17 16.561,7.122 a 0.82,0.82 0 0 0 -0.392,0.039 z m -1.078,-0.25 a 1.009,1.009 0 0 1 0.511,-0.039 c 0.295,0.068 0.239,0.284 0.065,0.465 a 2.886,2.886 0 0 1 -1.115,0.568 l -0.2,0.067 v 0 l 0.6,0.147 -0.135,0.142 -0.857,-0.21 0.1,-0.1 0.266,-0.095 a 3.025,3.025 0 0 0 1.134,-0.541 c 0.123,-0.128 0.17,-0.263 -0.034,-0.31 a 0.818,0.818 0 0 0 -0.392,0.04 z m -0.565,0.172 c 0.074,0.017 0.075,0.079 0.009,0.151 a 0.273,0.273 0 0 1 -0.24,0.091 C 14.278,7.181 14.276,7.117 14.341,7.049 A 0.276,0.276 0 0 1 14.59,6.954 Z M 13.619,6.44 A 1.022,1.022 0 0 1 14.131,6.4 c 0.3,0.066 0.248,0.28 0.079,0.459 a 2.825,2.825 0 0 1 -1.105,0.563 l -0.2,0.067 v 0 l 0.611,0.144 -0.132,0.14 -0.868,-0.2 0.1,-0.1 0.265,-0.095 a 2.968,2.968 0 0 0 1.124,-0.536 c 0.121,-0.127 0.164,-0.26 -0.043,-0.306 a 0.838,0.838 0 0 0 -0.394,0.04 z M 13.068,6.167 C 13.363,6.231 13.311,6.501 12.94,6.898 12.545,7.32 12.155,7.513 11.852,7.444 11.584,7.382 11.61,7.115 11.984,6.706 a 1.313,1.313 0 0 1 1.092,-0.541 z m -1.112,0.2 c 0.076,0.016 0.079,0.076 0.016,0.147 a 0.271,0.271 0 0 1 -0.237,0.09 C 11.66,6.587 11.655,6.525 11.717,6.458 A 0.274,0.274 0 0 1 11.964,6.369 Z M 11.185,5.79 11.862,5.931 11.733,6.071 11.2,5.96 10.857,6.26 a 0.877,0.877 0 0 1 0.122,0.017 0.39,0.39 0 0 1 0.242,0.13 c 0.059,0.079 0.052,0.2 -0.09,0.359 A 1.012,1.012 0 0 1 10.231,7.071 0.454,0.454 0 0 1 9.952,6.92 L 10.114,6.804 A 0.4,0.4 0 0 0 10.35,6.937 0.645,0.645 0 0 0 10.924,6.743 C 11.067,6.584 11.05,6.443 10.77,6.385 A 1.64,1.64 0 0 0 10.563,6.357 Z M 10.167,5.764 9.816,5.828 9.9,5.7 10.341,5.621 10.506,5.654 9.4,6.869 9.217,6.829 10.179,5.767 Z M 9.207,9.145 8.307,10.462 8.2,10.427 9.123,9.1 Z m -0.235,-0.257 -1,1.491 -0.116,-0.034 1.037,-1.5 z M 8.758,8.6 7.622,10.3 7.505,10.265 8.674,8.556 Z M 8.2,8.847 7.273,10.214 7.16,10.18 8.119,8.805 Z M 7.534,9.271 6.928,10.131 6.817,10.1 7.454,9.232 Z M 7.06,9.4 6.586,10.053 6.474,10.018 6.974,9.358 Z M 6.587,9.516 6.241,9.97 6.131,9.935 6.507,9.475 Z M 6.369,9.23 5.9,9.884 5.787,9.849 6.287,9.189 Z M 6.178,8.73 6.262,8.772 5.55,9.8 5.436,9.766 Z m -0.2,1.883 C 5.924,10.579 5.927,10.521 5.929,10.469 A 0.447,0.447 0 0 0 5.922,10.341 C 5.901,10.241 5.833,10.118 5.766,10.103 5.699,10.088 5.621,10.17 5.56,10.229 5.499,10.288 5.433,10.352 5.367,10.314 5.301,10.276 5.301,10.177 5.379,9.94 l 0.12,0.039 a 1.519,1.519 0 0 0 -0.05,0.181 l 0.024,-0.022 c 0.081,-0.079 0.192,-0.186 0.32,-0.158 0.151,0.033 0.231,0.233 0.253,0.335 a 0.583,0.583 0 0 1 0.009,0.16 V 10.5 a 0.664,0.664 0 0 0 0.15,-0.1 0.926,0.926 0 0 0 0.125,-0.119 0.317,0.317 0 0 1 0.156,-0.111 0.28,0.28 0 0 1 0.287,0.065 c 0.052,0.072 0.022,0.151 -0.024,0.269 -0.025,0.067 -0.057,0.15 -0.09,0.263 -0.043,0.152 -0.055,0.244 -0.035,0.274 a 0.189,0.189 0 0 0 0.2,0.058 c 0.043,-0.015 0.06,-0.044 0.1,-0.126 a 1.55,1.55 0 0 1 0.14,-0.234 0.619,0.619 0 0 1 0.4,-0.311 0.353,0.353 0 0 1 0.3,0.106 c 0.062,0.083 0.051,0.175 -0.085,0.708 a 1.043,1.043 0 0 0 -0.039,0.3 c 0,0.1 0.006,0.179 0.046,0.213 0.04,0.034 0.186,0.019 0.339,-0.062 0.1,-0.053 0.146,-0.107 0.316,-0.307 L 8.42,11.3 c 0.282,-0.33 0.37,-0.419 0.518,-0.469 a 0.725,0.725 0 0 1 0.315,-0.03 0.692,0.692 0 0 1 0.483,0.276 c 0.078,0.136 0.047,0.245 -0.082,0.7 -0.019,0.065 -0.039,0.138 -0.062,0.219 a 1.792,1.792 0 0 0 -0.121,0.58 c 0,0.005 0.031,0.5 0.27,0.57 a 0.45,0.45 0 0 0 0.343,-0.1 0.8,0.8 0 0 0 0.287,-0.325 2.5,2.5 0 0 1 0.885,-0.915 1.483,1.483 0 0 1 0.526,-0.227 0.677,0.677 0 0 1 0.509,0.035 0.616,0.616 0 0 1 0.262,0.442 0.529,0.529 0 0 1 -0.043,0.267 0.973,0.973 0 0 0 -0.066,0.291 c -0.012,0.151 -0.021,0.25 0.04,0.322 a 0.345,0.345 0 0 0 0.343,0.076 c 0.081,-0.024 0.117,-0.068 0.26,-0.25 l 0.076,-0.1 c 0.343,-0.432 0.446,-0.51 0.537,-0.561 a 0.64,0.64 0 0 1 0.5,-0.1 0.56,0.56 0 0 1 0.371,0.385 0.543,0.543 0 0 1 -0.065,0.383 3.048,3.048 0 0 0 -0.14,0.387 c -0.08,0.278 -0.113,0.406 -0.069,0.535 a 0.545,0.545 0 0 0 0.508,0.366 c 0.148,-0.012 0.244,-0.123 0.447,-0.372 a 3.157,3.157 0 0 0 0.315,-0.471 1.175,1.175 0 0 1 0.38,-0.455 0.9,0.9 0 0 1 0.469,-0.174 0.831,0.831 0 0 1 0.383,0.073 l -0.051,0.115 a 0.707,0.707 0 0 0 -0.326,-0.062 0.806,0.806 0 0 0 -0.4,0.152 1.068,1.068 0 0 0 -0.342,0.414 3.316,3.316 0 0 1 -0.326,0.488 c -0.2,0.25 -0.327,0.4 -0.535,0.418 h -0.038 a 0.678,0.678 0 0 1 -0.6,-0.453 1,1 0 0 1 0.067,-0.611 3.25,3.25 0 0 1 0.144,-0.4 c 0.059,-0.14 0.086,-0.2 0.06,-0.3 a 0.437,0.437 0 0 0 -0.284,-0.3 0.516,0.516 0 0 0 -0.4,0.09 c -0.074,0.041 -0.172,0.116 -0.5,0.529 l -0.076,0.1 c -0.146,0.187 -0.2,0.257 -0.324,0.293 a 0.464,0.464 0 0 1 -0.475,-0.116 0.537,0.537 0 0 1 -0.069,-0.413 1.134,1.134 0 0 1 0.074,-0.325 0.4,0.4 0 0 0 0.035,-0.209 0.492,0.492 0 0 0 -0.2,-0.348 0.568,0.568 0 0 0 -0.419,-0.02 1.358,1.358 0 0 0 -0.483,0.21 2.413,2.413 0 0 0 -0.612,0.532 2.521,2.521 0 0 0 -0.233,0.341 0.922,0.922 0 0 1 -0.328,0.368 0.557,0.557 0 0 1 -0.448,0.116 C 9.394,13.167 9.356,12.642 9.353,12.583 a 1.872,1.872 0 0 1 0.124,-0.62 C 9.5,11.881 9.521,11.808 9.539,11.743 9.662,11.309 9.683,11.225 9.633,11.138 A 0.577,0.577 0 0 0 9.244,10.924 0.6,0.6 0 0 0 8.986,10.948 c -0.113,0.038 -0.182,0.1 -0.463,0.432 L 8.448,11.467 A 1.161,1.161 0 0 1 8.095,11.803 C 7.973,11.868 7.748,11.961 7.616,11.851 A 0.389,0.389 0 0 1 7.525,11.545 1.116,1.116 0 0 1 7.568,11.216 c 0.122,-0.479 0.131,-0.57 0.106,-0.6 -0.052,-0.07 -0.187,-0.057 -0.188,-0.057 -0.128,0.013 -0.217,0.134 -0.31,0.261 a 1.314,1.314 0 0 0 -0.13,0.216 C 7.002,11.123 6.967,11.192 6.872,11.224 A 0.315,0.315 0 0 1 6.527,11.118 C 6.488,11.06 6.478,10.976 6.546,10.738 6.58,10.62 6.614,10.53 6.639,10.465 6.664,10.4 6.69,10.332 6.678,10.315 a 0.168,0.168 0 0 0 -0.15,-0.017 0.2,0.2 0 0 0 -0.1,0.073 1.118,1.118 0 0 1 -0.141,0.134 C 6.194,10.574 6.07,10.672 5.98,10.616 Z M 11.991,7.315 C 12.181,7.358 12.458,7.178 12.754,6.861 13.05,6.544 13.139,6.335 12.944,6.293 12.778,6.257 12.491,6.41 12.178,6.747 11.865,7.084 11.821,7.276 11.991,7.315 Z M 12,17.3 c 5.514,0 10,-3.253 10,-7.251 C 22,6.051 17.514,2.799 12,2.799 6.486,2.799 2,6.046 2,10.044 2,14.042 6.486,17.3 12,17.3 Z M 6.405,5.755 a 9.522,9.522 0 0 1 5.6,-1.7 9.522,9.522 0 0 1 5.595,1.7 5.265,5.265 0 0 1 2.381,4.228 A 5.265,5.265 0 0 1 17.6,14.211 9.522,9.522 0 0 1 12,15.909 9.522,9.522 0 0 1 6.405,14.209 5.265,5.265 0 0 1 4.024,9.983 5.265,5.265 0 0 1 6.405,5.755 Z m 13.007,9.703 A 12.836,12.836 0 0 1 11.967,17.673 12.835,12.835 0 0 1 4.523,15.458 7.776,7.776 0 0 1 2,12.577 l 0.116,1.63 v 0.023 c 0,3.814 4.433,6.976 9.819,6.976 5.386,0 9.993,-3.148 9.993,-6.962 L 22,12.44 a 7.709,7.709 0 0 1 -2.588,3.018 z"/>

</svg>
